X:1
T:Maryland, My Maryland
M:3/4
L:1/8
K:C
 G2| c3/2 c/2 c2 d2| e3/2 e/2 e4| d3/2 e/2 f2 B2| d3/2 c/2 c2 G2| c3/2 c/2 c2 d2|\
 e3/2 e/2 e4| d3/2 e/2 f2 B2| d3/2 c/2 c2- cg| ge a3 g| gf =f3 =f|\
 fd g3 f| f3/2 e/2 e2 G2| c3/2 c/2 c2 d2| e3/2 e/2 e4| d3/2 e/2 f2 B2|\
 d3/2 c/2 c4|
